X:1
T:Lead Me, Savior
T:Lead Me, Savior
T:Frank Marion Davis
T:Frank Marion Davis, 1880
T:Public Domain Courtesy of the Cyber Hymnal™
T:Public Domain Courtesy of the Cyber Hymnal™
C:Frank Marion Davis
Z:Public Domain
Z:Courtesy of the Cyber Hymnal™
%%score ( 1 2 ) ( 3 4 )
L:1/8
Q:1/4=98
M:4/4
K:Db
V:1 treble 
V:2 treble 
V:3 bass 
V:4 bass 
V:1
 [FA]3 [DF] [FA][Bd][Ac][GB] | A6 x2 | [EG]3 [DF] [CE][GB][FA][EG] | F6 x2 | %4
w: 1.~Sav- ior, lead me, lest I|stray,|Gent- ly lead me all the|way;|
w: 2.~Thou the ref- uge of my|soul|When life’s storm- y bil- lows|roll;|
w: 3.~Sav- ior, lead me, then at|last,|When the storm of life is|past,|
 [FA]3 [FA] [FA][DF][FA][Fd] | B6 x2 | [Ec]3 [Fd] [Ec][DB][CA][B,=G] | A6 x2 || %8
w: I am safe when by Thy|side,|I would in Thy love a-|bide.|
w: I am safe when Thou art|nigh,|All my hopes on Thee re-|ly.|
w: To the land of end- less|day,|Where all tears are wiped a-|way.|
"^Refrain" [FA]4 [DF]2 z2 | [Fd]4 [FA]2 z2 | [Af]3 [Ae] [Ad][GB][FA][DF] | ([CE]3 [DF] [EG]4) | %12
w: ||||
w: Lead me,|lead me,|Sav- ior, lead me lest I|stray; * *|
w: ||||
 [DF]3 [DF] [DF][DF][CG][DA] | [GB]6 [=Ec][Ed] | [FA]2 [DF]2 [EG]2 [A,C]2 | D6 x2 |] %16
w: ||||
w: Gent- ly down the stream of|time, Lead me,|Sav- ior, all the|way.|
w: ||||
V:2
 x8 | (FFGG F4) | x8 | (DDDD D4) | x8 | (GGGG G4) | x8 | (CDEF G4) || x8 | x8 | x8 | x8 | x8 | x8 | %14
 x8 | (A,2 B,B, A,4) |] %16
V:3
 [D,D]4 [D,D]4 | ([D,D][D,D][C,E][C,E] [D,D]4) | A,4 [A,,A,]4 | %3
 ([D,A,][D,A,][D,A,][D,A,] [D,A,]4) | [D,D]4 [D,D]4 | ([G,D][G,D][G,D][G,D] [G,D]4) | %6
 A,4 (=G,2 A,)B, | ([A,,A,][A,,B,][A,,C][A,,D] [A,,E]4) || [D,D]4 [D,A,]2 z2 | [D,A,]4 [D,D]2 z2 | %10
 z2 D[A,C] [F,D][D,D][D,D][D,A,] | ([A,,A,]2 [A,,A,][A,,A,] [A,,C]4) | %12
 z2 [D,A,][D,A,] [D,A,][D,A,][E,A,][F,D] | ([G,D]2 [G,D][G,D] [G,D]2) [=G,D][G,D] | %14
 [A,D]2 A,2 [A,,A,]2 [A,,G,]2 | (F,2 G,G, F,4) |] %16
V:4
 x8 | x8 | A,4 x4 | x8 | x8 | x8 | A,4 E,4 | x8 || x8 | x8 | x2 D x5 | x8 | x8 | x8 | x2 A,2 x4 | %15
 D,6 x2 |] %16

